assets/images/github.svg

<svg width="31" height="31" viewBox="0 0 31 31" fill="none" xmlns="http://www.w3.org/2000/svg">
<path d="M15.5 0C6.93625 0 0 7.11169 0 15.8921C0 22.9243 4.43687 28.8639 10.5981 30.9696C11.3731 31.1087 11.6637 30.6319 11.6637 30.2148C11.6637 29.8373 11.6444 28.5858 11.6444 27.2549C7.75 27.9899 6.7425 26.2815 6.4325 25.3876C6.25812 24.9307 5.5025 23.5202 4.84375 23.1428C4.30125 22.8448 3.52625 22.1098 4.82438 22.09C6.045 22.0701 6.91687 23.2421 7.2075 23.7189C8.6025 26.1226 10.8306 25.4472 11.7219 25.03C11.8575 23.997 12.2644 23.3017 12.71 22.9044C9.26125 22.5071 5.6575 21.1364 5.6575 15.0577C5.6575 13.3295 6.25813 11.8992 7.24625 10.7867C7.09125 10.3894 6.54875 8.7605 7.40125 6.57534C7.40125 6.57534 8.69938 6.15817 11.6637 8.20427C12.9037 7.8467 14.2213 7.66792 15.5388 7.66792C16.8563 7.66792 18.1738 7.8467 19.4138 8.20427C22.3781 6.13831 23.6763 6.57534 23.6763 6.57534C24.5288 8.7605 23.9863 10.3894 23.8313 10.7867C24.8194 11.8992 25.42 13.3096 25.42 15.0577C25.42 21.1563 21.7969 22.5071 18.3481 22.9044C18.91 23.401 19.3944 24.3546 19.3944 25.8445C19.3944 27.97 19.375 29.6784 19.375 30.2148C19.375 30.6319 19.6656 31.1286 20.4406 30.9696C23.5178 29.9049 26.1918 27.8773 28.086 25.1725C29.9803 22.4677 30.9995 19.2219 31 15.8921C31 7.11169 24.0638 0 15.5 0Z" fill="#626262"/>
</svg>

<svg width="31" height="31" viewBox="0 0 31 31" fill="none" xmlns="http://www.w3.org/2000/svg"><path d="M15.5 0C6.936 0 0 7.112 0 15.892c0 7.032 4.437 12.972 10.598 15.078.775.139 1.066-.338 1.066-.755 0-.378-.02-1.63-.02-2.96-3.894.735-4.902-.973-5.212-1.867-.174-.457-.93-1.868-1.588-2.245-.543-.298-1.318-1.033-.02-1.053 1.221-.02 2.093 1.152 2.383 1.629 1.395 2.404 3.624 1.728 4.515 1.311.136-1.033.542-1.728.988-2.126-3.449-.397-7.053-1.768-7.053-7.846 0-1.729.601-3.159 1.59-4.271-.156-.398-.698-2.027.154-4.212 0 0 1.298-.417 4.263 1.63a14.051 14.051 0 0 1 3.875-.537c1.317 0 2.635.179 3.875.536 2.964-2.066 4.262-1.629 4.262-1.629.853 2.186.31 3.814.155 4.212.988 1.112 1.589 2.523 1.589 4.27 0 6.1-3.623 7.45-7.072 7.847.562.497 1.046 1.45 1.046 2.94 0 2.126-.019 3.834-.019 4.37 0 .418.29.915 1.066.756a15.558 15.558 0 0 0 7.645-5.797A16.19 16.19 0 0 0 31 15.893C31 7.111 24.064 0 15.5 0Z" fill="#626262"/></svg>
